!!!OTL: WER SICH DES MAIEN FREUET
!!!ARE: Europa, Mitteleuropa, Deutschland, Franken
!!!SCT: E2027
!!!YEM: Copyright 1995, estate of Helmut Schaffrath.
**kern
*ICvox
*Ivox
*M4/4
*k[b-e-]
*B-:
{4f
=1
4b-
4b-
4b-
4f
=2
8b-
8cc
8dd
8ee-
4cc
8r}
{8dd
=3
4cc
4b-
8a
8b-
4g
=4
2f
4r}
{4f
=5
4b-
4b-
4b-
4f
=6
8b-
8cc
8dd
8ee-
4cc
4r}
=7
{4cc
4cc
4dd
4b-
=8
4.cc
8dd
4cc
4r}
=9
{4.ff
8ee-
4dd
4cc
=10
2b-
2ee-}
=11
{8dd
8cc
4dd
4.cc
8cc
=12
2b-
4r}
==
!!!AGN: geistlich, Wallfahrts - Lied
!!!ONB: ESAC (Essen Associative Code) Database: ERK3
!!!AMT: simple quadruple
!!!AIN: vox
!!!EED: Helmut Schaffrath
!!!EEV: 1.0
*-
